qtOgitor/res/icons/translate.svg

<svg width="40" xmlns="http://www.w3.org/2000/svg" height="41.25" viewBox="0 0 32 33">
<path fill="#606066" d="m11.45,10.71c1.57-2.11 3.03-4.31 4.48-6.51 1.49,2.22 3.01,4.41 4.63,6.53-.92,.1-2.77,.29-3.69,.39 .03,1.3 .07,2.6 .1,3.9 1.32,.04 2.64,.08 3.96,.13 .09-.93 .26-2.79 .34-3.72 2.06,1.6 4.22,3.06 6.4,4.47-2.18,1.46-4.32,2.98-6.35,4.65-.09-.92-.27-2.78-.36-3.7-1.33,.04-2.66,.08-3.99,.12-.04,1.34-.07,2.69-.1,4.03 .92,.09 2.77,.26 3.7,.34-1.68,2-3.15,4.14-4.55,6.34-1.39-2.23-2.9-4.38-4.61-6.38 .93-.09 2.8-.27 3.73-.36-.04-1.32-.08-2.64-.12-3.96-1.31-.05-2.63-.09-3.95-.14-.1,.94-.32,2.82-.42,3.77-2.07-1.71-4.08-3.46-6.21-5.09 2.12-1.28 4.21-2.62 6.31-3.93 .06,.88 .18,2.65 .24,3.53 1.35-.03 2.7-.06 4.05-.09 .03-1.32 .05-2.65 .08-3.97-.92-.09-2.75-.26-3.67-.35z"/>
</svg>

<?xml version="1.0" encoding="UTF-8" standalone="no"?>
<!-- Created with Inkscape (http://www.inkscape.org/) -->
<svg
   xmlns:svg="http://www.w3.org/2000/svg"
   xmlns="http://www.w3.org/2000/svg"
   version="1.0"
   width="32pt"
   height="33pt"
   viewBox="0 0 32 33"
   id="svg2">
  <defs
     id="defs8" />
  <g
     id="#606066fd">
    <path
       d="M 11.45,10.71 C 13.02,8.6 14.48,6.4 15.93,4.2 C 17.42,6.42 18.94,8.61 20.56,10.73 C 19.64,10.83 17.79,11.02 16.87,11.12 C 16.9,12.42 16.94,13.72 16.97,15.02 C 18.29,15.06 19.61,15.1 20.93,15.15 C 21.02,14.22 21.19,12.36 21.27,11.43 C 23.33,13.03 25.49,14.49 27.67,15.9 C 25.49,17.36 23.35,18.88 21.32,20.55 C 21.23,19.63 21.05,17.77 20.96,16.85 C 19.63,16.89 18.3,16.93 16.97,16.97 C 16.93,18.31 16.9,19.66 16.87,21 C 17.79,21.09 19.64,21.26 20.57,21.34 C 18.89,23.34 17.42,25.48 16.02,27.68 C 14.63,25.45 13.12,23.3 11.41,21.3 C 12.34,21.21 14.21,21.03 15.14,20.94 C 15.1,19.62 15.06,18.3 15.02,16.98 C 13.71,16.93 12.39,16.89 11.07,16.84 C 10.97,17.78 10.75,19.66 10.65,20.61 C 8.58,18.9 6.57,17.15 4.44,15.52 C 6.56,14.24 8.65,12.9 10.75,11.59 C 10.81,12.47 10.93,14.24 10.99,15.12 C 12.34,15.09 13.69,15.06 15.04,15.03 C 15.07,13.71 15.09,12.38 15.12,11.06 C 14.2,10.97 12.37,10.8 11.45,10.71 z"
       id="path5"
       style="opacity:1;fill:#606066" />
  </g>
</svg>
